X:1
T:Your Father Would Be Proud
T:Your Father Would Be Proud
%%score 1 2 3 4
L:1/8
Q:1/4=50
M:4/4
K:G
V:1 treble nm="Violin" snm="Vln."
V:2 alto nm="Viola" snm="Vla."
V:3 alto nm="Viola" snm="Vla."
V:4 bass nm="Violoncello" snm="Vc."
V:1
!p! g8- | g4- ggc'a | e4 a4 | b4- bgbg | f8 |!pp! e8 | c'8 | b4- bgbg | %8
"^rit." f8[Q:1/4=48][Q:1/4=46][Q:1/4=44][Q:1/4=42] |"^a tempo"[Q:1/4=50] g8 | g8 | f8 | g8 | g8 | %14
 g8 | f e3 fg z2 | f4 e4 | gege gege | aeae aeae | bgbg bgbg | %20
"^rit." af[Q:1/4=48]af[Q:1/4=46] af[Q:1/4=45]af |"^a tempo"[Q:1/4=50] gege gege | aeae aeae | %23
 bgbg bgbg |"^rit." d'[Q:1/4=48]bd'[Q:1/4=46]b[Q:1/4=44] d'b[Q:1/4=42]d'b | %25
[Q:1/4=50]"^a tempo" e8 | g8 | f8 |!mp! e4 (3e2 f2 g2 | g'4 (3g'2 f'2 e'2 | e'8 | f e3 B4 | z8 | %33
 b8 | A4 B4 |[K:Eb] z8 | z8 | z ABc de d2 | g2 d2 d2 e2 | c4 (3(ded) g2- |[K:Bb] g6 (3(ded) | a8 | %42
[Q:1/4=80] z2 z (3CEG (3:2:2c2 eg | a4 d4 | (BA) B4 G2 | c6 A2 | (BA) B6 | B6 D2 | (BA) B4 G2 | %49
 g8 | a8 | z8 | z8 | z8 |!p! g2 d4 g2 | a4 d2 a2 | b8 |[Q:1/4=110] g4 a4 |!mp! b2 d4 b2 | %59
 a2 d4 c'2 | b2 e4 b2 | a2 f6 | z8 |!mf! (3ggg g6- | g8 | (3ggg g6 | (3ggg g6- | g8 | z2 e6 | g8 | %70
 !fermata!z8 |] %71
V:2
!pp! z8 | [CG]6 [B,G]2 | A,4 A,4 | B,8 | D8 |!pp! C8 | G8 | F8 |"^rit." z8 |"^a tempo" C8 | B,8 | %11
 D8 | E8 | E8 | G4 B4 | F E3 FG z2 | c4 B4 | [E,B,]8 | [E,C]8 | [B,F]8 |"^rit." F,8 | %21
"^a tempo" G,8 | A,8 | B,8 |"^rit." F,8 |"^a tempo" E8 | G8 | B8 | E8 | E8 | G8 |!mp! F E3 F G3 | %32
 F4 E4 | F E3 F G3 | A4 B4 |[K:Eb] (GF) G6 | G,2 A,2 z2 (ED) | (DC) A6 | G4 C4 | C4 C4 | %40
[K:Bb] EDCB, A,4- | A,G^FE DC C2 | C8 | D8 | G8 | A8 | B8 | B8 | B8 | B4 (3c2 B2 G2 | A4- AD^FA | %51
 B4 A4- | A8- | A8 |!pp! B,8 | A,8 | G,8- | G,8 |!f! (BA) B4 G2 | c6 A2 | (BA) B4 G2 | Fc- c6 | %62
 =B4 c4 |!f! z4 z2 c2 | B4 A4 | B2 c6 | c4 F4 | G6 D2 | E8 | G8 | !fermata!z8 |] %71
V:3
!pp! z8 | E6 E2 | [CE]4 [DF]4 | [DG]8 | [FA]8 |!pp! [G,E]8 | [E,C]8 | [B,D]6- [B,D]F, | %8
"^rit." F,B,B,D E2 D2 |!p!"^a tempo" E4 (3E2 F2 G2 | G4 B4 | F4 (3F2 G2 B2 | B4 c4 | %13
 c4 (3c2 d2 e2 | e4 g4 | f e3 fg z2 | z8 | G,8 | A,8 | D8 |"^rit." [B,D]8 | %21
"^a tempo" G,4- G,G,CA, | E,4 E,4 | D4- DB,DB, |"^rit." F8 |"^a tempo" E4 (3E2 F2 G2 | G4 B4 | %27
 F4 (3F2 G2 B2 | B4 c4 |!mp! C4 (3C2 D2 E2 | E4 G4 | C B,3 B,4 | [CF]4 [B,E]4 | F8 | E8 | %35
[K:Eb] z4 (ED)(DC) | C2 (AG) A4 | B,8- | B,2 A,6 | A,4 G,4 |[K:Bb] C8 | D8 | C8 | D8 | D8 | D8 | %46
 E8 | =E8 | D8 | E8 | D8 | ^F,8- | F,8- | F,8 |!pp! [G,D]8 | [F,C]8 | [E,B,]8- | [E,B,]8 | z8 | %59
 z8 | z8 | z8 | (3A,2 F,2 D,2 (3A,2 F,2 D,2 |!mp! (3[G,D][G,D][G,D] [G,D]6- | [G,D]8 | %65
 (3[G,D][G,D][G,D] [G,D]6 | (3[G,E][G,E][G,E] [G,E]6- | [G,E]8 | [G,E]8 | [G,D]8 | !fermata!z8 |] %71
V:4
!pp! z8 | z8 | z8 | z8 | z8 |!p! G,4- G,G,CA, | E,4 C4 | D4- DB,DB, |"^rit." F,8 | %9
"^a tempo" E,4 (3E,2 F,2 G,2 | G,4 B,4 | F,4 (3F,2 G,2 B,2 | B,4 C4 | C4 (3C2 B,2 A,2 | G,4 B,4 | %15
 C B,3 CD z2 | z8 | G,4- G,G,CA, | E,4 A,4 | B,4- B,G,B,G, |"^rit." F,,A,,D,E, F,A,DE | %21
"^a tempo" D3 C G,2 C2 | CB,B,A, A,4 | B,A,A,G, G,D,D,G, |"^rit." D^CCB, B,4 | %25
"^a tempo" E,4 (3E,2 F,2 G,2 | G,4 B,4 | F,4 (3F,2 G,2 B,2 | B,4 C4 | C8 | G,8 | B,8 | G,,8 | z8 | %34
 G,8 |[K:Eb] C,8 | G,,2 A,,6 | A,,6 G,,2 | G,,8 | B,,2 A,,2 G,,4 |[K:Bb] G,,8 | A,,8 | A,,8 | %43
 A,,8 | C,8 | D,8 | E,8 | =E,8 | D,8 | E,8 | D,8 | D,8 |!f! D,3 C,3 B,,2- | B,, A,,3- A,,4 | z8 | %55
 z8 | z8 | z8 |!mf! z4 G,,4- | G,,2 z2 G,,4- | G,,2 z2 G,,4- | G,,2 z2 z4 | z8 | %63
 (3B,,B,,B,, B,,6- | B,,8 | (3B,,B,,B,, B,,6 | (3C,C,C, C,6- | C,8 | B,,8 | B,,8 | !fermata!G,,8 |] %71

